X:132
T:Winster Gallop
R:Reel
O:England
M:4/4
K:G
P:A
G2B2 G2B2 | G2B2 d4 | A2Bc B2A2 | GABc d4 |\
c2 ee g2 e2 | d2 B2 d4 | A2Bc B2A2 | G4 G4:|*
P:B
|:g2f2 e2d2 | g2f2 e2d2 | g2f2 e2d2 | c2B2 A4 |\
f2e2 d4 | f2e2 d4 | d4 A3c | B2A2 G4:|**
